share/parts/SHT3X (Temp. Hum.)/part.svg

<svg width="277" height="245" version="1.1" viewBox="0 0 22277 19734" xmlns="http://www.w3.org/2000/svg">
 <g transform="translate(-38766,-17898)" fill="#313d63" stroke="#313d63">
  <path d="m38750 17900v19700h22250v-19700h-22250" fill-rule="evenodd"/>
  <g fill="none" fill-opacity="0" stroke="#000" stroke-linecap="round" stroke-linejoin="round" stroke-width="19.685">
   <path d="m61000 17900h-22250m22250 19700v-19700m-22250 19700h22250m-22250-19700v19700"/>
  </g>
 </g>
 <g fill="none" fill-opacity="0" stroke-linecap="round" stroke-linejoin="round">
  <g transform="translate(-38766,-17898)" stroke="#212d53" stroke-width="98.425">
   <path d="m57295 23712v83l205 205h2500m-3276-276v500m-12-512 12 12m-20-12h8m12 512 1526 1526h2e3l250-250m0-2e3 -500-500m500 2500v-2e3m-3402-713h197m2705-787h-2500m-205 204v583m205-787-205 204m-591 583h197m0 364 99 99m-99-463v364m0 197v364m99-462-99 98m0 555v-191m1097 1288-1097-1097m3099 1097h-2002"/>
  </g>
  <g stroke="#f0f0f0">
   <g transform="translate(-38766,-17898)" stroke-width="147.64">
    <path d="m40902 33926h337m-169 591v-591m366 281h197m84 310h-281v-591h281m253 591v-591l197 422 197-422v591m281 0v-591h225l56 28 29 28 28 57v84l-28 56-29 28-56 28h-225m4978 282-197-282m-141 282v-591h225l56 28 29 28 28 57v84l-28 56-29 28-56 28h-225m591 282v-591m0 281h337m0 310v-591"/>
   </g>
   <g transform="translate(-38766,-17898)" stroke-width="295.28">
    <path d="m51719 20228 168 56h282l112-56 56-57 56-112v-113l-56-112-56-56-112-57-225-56-113-56-56-56-56-113v-112l56-113 56-56 113-56h281l168 56m507 1125v-1181m0 562h675m0 619v-1181m393 0h675m-337 1181v-1181m618 0h732l-394 450h169l112 56 56 56 57 113v281l-57 112-56 57-112 56h-338l-112-56-57-57m1125-1068 788 1181m0-1181-788 1181"/>
   </g>
   <g transform="translate(-38766,-17898)" stroke-width="47.244">
    <path d="m56566 23250v-394m867 787v-787m2567-1380h523v524m0 500v3023m-1047 0h1047m-1047-3023v3023m0-3023h1047"/>
   </g>
  </g>
  <g transform="translate(-38766,-17898)" stroke="#000" stroke-width="19.685">
   <path d="m61000 17900h-22250m22250 19700v-19700m-22250 19700h22250m-22250-19700v19700"/>
  </g>
 </g>
 <g transform="matrix(0,-393.6,393.63,0,17832,5753.3)" stroke="#000" stroke-width=".093">
  <path d="m0.02 0.395h0.01m0-0.25h-0.01v0.25" fill="none"/>
  <path d="m2.01 0.03v1.98h-1.98v-1.98z" fill="#1a1a1a" fill-rule="evenodd"/>
  <path d="m2.02 0.145h-0.01m0 0.25h0.01m0 0.25h-0.01m-1.98 0h-0.01m1.99 0.25h0.01m-2 0h0.01m1.99 0.25h-0.01m-1.98 0h-0.01m1.99 0.25h0.01m-2 0h0.01m1.99 0.25h-0.01m-1.98 0h-0.01m1.99 0.25h0.01m-2 0h0.01" fill="none"/>
  <circle transform="scale(1,-1)" cx=".5" cy="-.5" r=".2" fill="#333"/>
  <path d="m0.02 1.645v0.25m0-1.25v0.25m0 0.25v0.25m2-1v-0.25m0 1.75v-0.25m0-0.75v-0.25m0 0.75v-0.25" fill="none"/>
 </g>
 <g stroke-width=".093">
  <g transform="matrix(393.7 0 0 -393.69 21234 4101.8)" stroke="#000">
   <g fill-rule="evenodd">
    <path d="m-1.27-8.89h2.54v10.16h-2.54z" fill="#1a1a1a"/>
    <path d="m-0.6-1.94v-1.2h1.2v1.2z" fill="#333"/>
    <path d="m-0.6-5.68h1.2v1.2h-1.2zm0 5.08h1.2v1.2h-1.2zm1.2-6.42h-1.2v-1.2h1.2z" fill="#4d4d4d"/>
   </g>
   <path d="m-0.6-1.94 0.299-0.299m-0.299-0.901 0.299 0.299m0 0.602v-0.602m0.901 0.901-0.299-0.299h-0.602m0.901-0.901-0.299 0.299v0.602m-0.602-0.602h0.602m0.299-1.639-0.299-0.299m-0.901 0.299 0.299-0.299m0.602 0h-0.602m0.901-0.901-0.299 0.299v0.602m-0.901-0.901 0.299 0.299h0.602m-0.602 0.602v-0.602m-0.299 4.781 0.299 0.299m0.901-0.299-0.299 0.299m-0.602 0h0.602m-0.901 0.901 0.299-0.299v-0.602m0.901 0.901-0.299-0.299h-0.602m0.602-0.602v0.602m-0.901-8.521 0.299 0.299m0.901-0.299-0.299 0.299m-0.602 0h0.602m-0.901 0.901 0.299-0.299v-0.602m0.901 0.901-0.299-0.299h-0.602m0.602-0.602v0.602" fill="none"/>
   <path d="m-0.3-2.84h0.6v0.6h-0.6zm0.6-2.54v0.6h-0.6v-0.6zm0 5.08v0.6h-0.6v-0.6zm0-7.62v0.6h-0.6v-0.6z" fill="#808000" fill-rule="evenodd"/>
   <path d="m-0.1-2.29v0.05m0-0.55v0.5m0-0.55v0.05m0.2-0.05v0.05m-0.2 0h0.2v0.55m-0.2-0.05h0.2m-0.2-2.54v0.05m0-0.55v0.5m0-0.55v0.05m0.2-0.05v0.05m-0.2 0h0.2v0.55m-0.2-0.05h0.2m-0.2 5.08v0.05m0-0.55v0.5m0-0.55v0.05m0.2-0.05v0.05m-0.2 0h0.2v0.55m-0.2-0.05h0.2m-0.2-7.62v0.05m0-0.55v0.5m0-0.55v0.05m0.2-0.05v0.05m-0.2 0h0.2v0.55m-0.2-0.05h0.2" fill="none"/>
  </g>
 </g>
</svg>

<svg width="277" height="245" viewBox="0 0 22277 19734" xmlns="http://www.w3.org/2000/svg"><g clip-path="url(#a)" mask="url(#b)" transform="translate(-38766 -17898)"><defs><clipPath id="a"><path d="M38750 17900v19700h22250V17900H38750" fill-rule="evenodd"/></clipPath></defs><g fill="#313d63" stroke="#313d63"><path d="M38750 17900v19700h22250V17900H38750" fill-rule="evenodd"/><g fill-opacity="0" stroke-linecap="round" stroke-linejoin="round" stroke-width="19.685" fill="none" stroke="#000"><path d="M61000 17900H38750M61000 37600V17900M38750 37600h22250M38750 17900v19700"/></g></g><g stroke-linecap="round" stroke-linejoin="round" stroke-width="0" stroke="none" fill="#9c6b28"><circle cx="43604" cy="20978" r="300"/><circle cx="43648" cy="30982" r="300"/><circle cx="40211" cy="21431" r="300"/><circle cx="40254" cy="30573" r="300"/><circle cx="42632" cy="32758" r="300"/><circle cx="41246" cy="19270" r="300"/><g fill-rule="evenodd"><path d="M41578 33050h-600v-600h600zM57344 23457h-689v-413.4h689zM56764 22994h-118.1v-196.9h118.1zM56961 22994h-118.1v-196.9h118.1zM57158 22994h-118.1v-196.9h118.1zM57354 22994h-118.1v-196.9h118.1zM57354 23703h-118.1v-196.9h118.1zM57158 23703h-118.1v-196.9h118.1zM56961 23703h-118.1v-196.9h118.1zM56764 23703h-118.1v-196.9h118.1z"/></g><g><circle cx="60000" cy="25000" r="334.65"/><circle cx="60000" cy="24000" r="334.65"/><circle cx="60000" cy="23000" r="334.65"/><path d="M59665 22335v-669.2h669.2v669.2z" fill-rule="evenodd"/><circle cx="49454" cy="20953" r="300"/><circle cx="49498" cy="30957" r="300"/><circle cx="46061" cy="21406" r="300"/><circle cx="46104" cy="30547" r="300"/><circle cx="48482" cy="32732" r="300"/><circle cx="47096" cy="19244" r="300"/></g><path d="M47428 33024h-600v-600h600z" fill-rule="evenodd"/></g><g fill="#212d53" stroke="#212d53" stroke-linecap="round" stroke-linejoin="round"><g stroke-width="0" stroke="none"><circle cx="43604" cy="20978" r="300"/><circle cx="43648" cy="30982" r="300"/><circle cx="40211" cy="21431" r="300"/><circle cx="40254" cy="30573" r="300"/><circle cx="42632" cy="32758" r="300"/><circle cx="41246" cy="19270" r="300"/></g><g fill-rule="evenodd" stroke-width="0" stroke="none"><path d="M41578 33050h-600v-600h600zM57344 23457h-689v-413.4h689zM56764 22994h-118.1v-196.9h118.1zM56961 22994h-118.1v-196.9h118.1zM57158 22994h-118.1v-196.9h118.1zM57354 22994h-118.1v-196.9h118.1zM57354 23703h-118.1v-196.9h118.1zM57158 23703h-118.1v-196.9h118.1zM56961 23703h-118.1v-196.9h118.1zM56764 23703h-118.1v-196.9h118.1z"/></g><g stroke-width="0" stroke="none"><circle cx="60000" cy="25000" r="334.65"/><circle cx="60000" cy="24000" r="334.65"/><circle cx="60000" cy="23000" r="334.65"/><path d="M59665 22335v-669.2h669.2v669.2z" fill-rule="evenodd"/><circle cx="49454" cy="20953" r="300"/><circle cx="49498" cy="30957" r="300"/><circle cx="46061" cy="21406" r="300"/><circle cx="46104" cy="30547" r="300"/><circle cx="48482" cy="32732" r="300"/><circle cx="47096" cy="19244" r="300"/></g><path d="M47428 33024h-600v-600h600z" fill-rule="evenodd" stroke="none" stroke-width="0"/><g fill-opacity="0" stroke-width="98.425" fill="none"><path d="M57295 23712v83M57295 23795l205 205M57500 24000h2500M56724 23724v500M56712 23712l12 12M56704 23712h8M56724 24224l1526 1526M58250 25750h2000M60250 25750l250-250M60500 23500l-500-500M60500 25500v-2000M57098 22787h197M60000 22000h-2500M57295 22204v583M57500 22000l-205 204M56704 22787h197M56901 23151l99 99M56901 22787v364M56901 23348v364M57000 23250l-99 98M56901 23903v-191M57998 25000l-1097-1097M60000 25000h-2002"/></g><g stroke-width="0" stroke="none"><circle cx="43604" cy="20978" r="68.898"/><circle cx="43648" cy="30982" r="68.898"/><circle cx="40211" cy="21431" r="68.898"/><circle cx="40254" cy="30573" r="68.898"/><circle cx="42632" cy="32758" r="68.898"/><circle cx="41246" cy="19270" r="68.898"/><circle cx="41278" cy="32750" r="68.898"/><circle cx="60000" cy="25000" r="68.898"/><circle cx="60000" cy="24000" r="68.898"/><circle cx="60000" cy="23000" r="68.898"/><circle cx="60000" cy="22000" r="68.898"/><circle cx="49454" cy="20953" r="68.898"/><circle cx="49498" cy="30957" r="68.898"/><circle cx="46061" cy="21406" r="68.898"/><circle cx="46104" cy="30547" r="68.898"/><circle cx="48482" cy="32732" r="68.898"/><circle cx="47096" cy="19244" r="68.898"/><circle cx="47128" cy="32724" r="68.898"/></g></g><g fill="#b5ae30" mask="url(#c)" stroke="#b5ae30" stroke-linecap="round" stroke-linejoin="round"><g stroke-width="0" stroke="none"><circle cx="43604" cy="20978" r="300"/><circle cx="43648" cy="30982" r="300"/><circle cx="40211" cy="21431" r="300"/><circle cx="40254" cy="30573" r="300"/><circle cx="42632" cy="32758" r="300"/><circle cx="41246" cy="19270" r="300"/></g><g fill-rule="evenodd" stroke-width="0" stroke="none"><path d="M41578 33050h-600v-600h600zM57344 23457h-689v-413.4h689zM56764 22994h-118.1v-196.9h118.1zM56961 22994h-118.1v-196.9h118.1zM57158 22994h-118.1v-196.9h118.1zM57354 22994h-118.1v-196.9h118.1zM57354 23703h-118.1v-196.9h118.1zM57158 23703h-118.1v-196.9h118.1zM56961 23703h-118.1v-196.9h118.1zM56764 23703h-118.1v-196.9h118.1z"/></g><g stroke-width="0" stroke="none"><circle cx="60000" cy="25000" r="334.65"/><circle cx="60000" cy="24000" r="334.65"/><circle cx="60000" cy="23000" r="334.65"/><path d="M59665 22335v-669.2h669.2v669.2z" fill-rule="evenodd"/><circle cx="49454" cy="20953" r="300"/><circle cx="49498" cy="30957" r="300"/><circle cx="46061" cy="21406" r="300"/><circle cx="46104" cy="30547" r="300"/><circle cx="48482" cy="32732" r="300"/><circle cx="47096" cy="19244" r="300"/></g><path d="M47428 33024h-600v-600h600z" fill-rule="evenodd" stroke="none" stroke-width="0"/><g fill-opacity="0" stroke-width="98.425" fill="none"><path d="M57295 23712v83M57295 23795l205 205M57500 24000h2500M56724 23724v500M56712 23712l12 12M56704 23712h8M56724 24224l1526 1526M58250 25750h2000M60250 25750l250-250M60500 23500l-500-500M60500 25500v-2000M57098 22787h197M60000 22000h-2500M57295 22204v583M57500 22000l-205 204M56704 22787h197M56901 23151l99 99M56901 22787v364M56901 23348v364M57000 23250l-99 98M56901 23903v-191M57998 25000l-1097-1097M60000 25000h-2002"/></g><g stroke-width="0" stroke="none"><circle cx="43604" cy="20978" r="68.898"/><circle cx="43648" cy="30982" r="68.898"/><circle cx="40211" cy="21431" r="68.898"/><circle cx="40254" cy="30573" r="68.898"/><circle cx="42632" cy="32758" r="68.898"/><circle cx="41246" cy="19270" r="68.898"/><circle cx="41278" cy="32750" r="68.898"/><circle cx="60000" cy="25000" r="68.898"/><circle cx="60000" cy="24000" r="68.898"/><circle cx="60000" cy="23000" r="68.898"/><circle cx="60000" cy="22000" r="68.898"/><circle cx="49454" cy="20953" r="68.898"/><circle cx="49498" cy="30957" r="68.898"/><circle cx="46061" cy="21406" r="68.898"/><circle cx="46104" cy="30547" r="68.898"/><circle cx="48482" cy="32732" r="68.898"/><circle cx="47096" cy="19244" r="68.898"/><circle cx="47128" cy="32724" r="68.898"/></g></g><defs><mask id="c"><g fill-opacity="1" stroke="#fff" stroke-linecap="round" stroke-linejoin="round" stroke-width="0" fill="#fff"><circle cx="43604" cy="20978" r="300"/><circle cx="43648" cy="30982" r="300"/><circle cx="40211" cy="21431" r="300"/><circle cx="40254" cy="30573" r="300"/><circle cx="42632" cy="32758" r="300"/><circle cx="41246" cy="19270" r="300"/><path d="M41578 33050h-600v-600h600zM57344 23457h-689v-413.4h689zM56764 22994h-118.1v-196.9h118.1zM56961 22994h-118.1v-196.9h118.1zM57158 22994h-118.1v-196.9h118.1zM57354 22994h-118.1v-196.9h118.1zM57354 23703h-118.1v-196.9h118.1zM57158 23703h-118.1v-196.9h118.1zM56961 23703h-118.1v-196.9h118.1zM56764 23703h-118.1v-196.9h118.1z" fill-rule="evenodd"/><g><circle cx="60000" cy="25000" r="334.65"/><circle cx="60000" cy="24000" r="334.65"/><circle cx="60000" cy="23000" r="334.65"/><path d="M59665 22335v-669.2h669.2v669.2z" fill-rule="evenodd"/><circle cx="49454" cy="20953" r="300"/><circle cx="49498" cy="30957" r="300"/><circle cx="46061" cy="21406" r="300"/><circle cx="46104" cy="30547" r="300"/><circle cx="48482" cy="32732" r="300"/><circle cx="47096" cy="19244" r="300"/></g><g><path d="M47428 33024h-600v-600h600z" fill-rule="evenodd"/></g></g></mask></defs><defs><mask id="d"><path fill="#fff" d="M38651 9901h24368v27708H38651z"/><g fill-opacity="1" stroke="#000" stroke-linecap="round" stroke-linejoin="round" stroke-width="0"><circle cx="43604" cy="20978" r="300"/><circle cx="43648" cy="30982" r="300"/><circle cx="40211" cy="21431" r="300"/><circle cx="40254" cy="30573" r="300"/><circle cx="42632" cy="32758" r="300"/><circle cx="41246" cy="19270" r="300"/><path d="M41578 33050h-600v-600h600zM57344 23457h-689v-413.4h689zM56764 22994h-118.1v-196.9h118.1zM56961 22994h-118.1v-196.9h118.1zM57158 22994h-118.1v-196.9h118.1zM57354 22994h-118.1v-196.9h118.1zM57354 23703h-118.1v-196.9h118.1zM57158 23703h-118.1v-196.9h118.1zM56961 23703h-118.1v-196.9h118.1zM56764 23703h-118.1v-196.9h118.1z" fill-rule="evenodd"/><g><circle cx="60000" cy="25000" r="334.65"/><circle cx="60000" cy="24000" r="334.65"/><circle cx="60000" cy="23000" r="334.65"/><path d="M59665 22335v-669.2h669.2v669.2z" fill-rule="evenodd"/><circle cx="49454" cy="20953" r="300"/><circle cx="49498" cy="30957" r="300"/><circle cx="46061" cy="21406" r="300"/><circle cx="46104" cy="30547" r="300"/><circle cx="48482" cy="32732" r="300"/><circle cx="47096" cy="19244" r="300"/></g><g><path d="M47428 33024h-600v-600h600z" fill-rule="evenodd"/></g></g></mask></defs><g fill="none" fill-opacity="0" mask="url(#d)" stroke="#f0f0f0" stroke-linecap="round" stroke-linejoin="round"><g stroke-width="147.64"><path d="M40902 33926h337M41070 34517v-591M41436 34207h197M41717 34517h-281v-591h281M41970 34517v-591l197 422 197-422v591M42645 34517v-591h225l56 28 29 28 28 57v84l-28 56-29 28-56 28h-225M47623 34517l-197-282M47285 34517v-591h225l56 28 29 28 28 57v84l-28 56-29 28-56 28h-225M47876 34517v-591M47876 34207h337M48213 34517v-591"/></g><g stroke-width="295.28"><path d="M51719 20228l168 56h282l112-56 56-57 56-112v-113l-56-112-56-56-112-57-225-56-113-56-56-56-56-113v-112l56-113 56-56 113-56h281l168 56M52900 20284v-1181M52900 19665h675M53575 20284v-1181M53968 19103h675M54306 20284v-1181M54924 19103h732l-394 450h169l112 56 56 56 57 113v281l-57 112-56 57-112 56h-338l-112-56-57-57M56049 19103l788 1181M56837 19103l-788 1181"/></g><g stroke-width="62.992"><path d="M41315 31197h1222M41315 20832v10365M42537 20832h-1222M42537 31197V20832M40094 32947h3730M40094 18983v13964M43824 18983h-3730M43824 32947V18983"/></g><g stroke-width="47.244"><path d="M56566 23250v-394M57433 23643v-787M60000 21476h523M60523 21476v524M60523 22500v3023M59476 25523h1047M59476 22500v3023M59476 22500h1047"/></g><g stroke-width="62.992"><path d="M49674 32921V18958M49674 18958h-3730M45944 18958v13963M45944 32921h3730M48387 31172V20806M48387 20806h-1222M47165 20806v10366M47165 31172h1222"/></g></g><g fill-opacity="0" stroke-linecap="round" stroke-linejoin="round" stroke-width="19.685" fill="none" stroke="#000"><path d="M61000 17900H38750M61000 37600V17900M38750 37600h22250M38750 17900v19700"/></g><defs><mask id="b"><path fill="#fff" d="M38651 9901h24368v27708H38651z"/><path stroke="#000" stroke-linecap="round" stroke-width="300" d="M43604 20978h0M43646.5 30981.5h0M40209.5 21430.5h0M40252.5 30571.5h0M42631 32757h0M41246 19270h0M41277.5 32750.5h0"/><path stroke="#000" stroke-linecap="round" stroke-width="393" d="M60000 25000h0M60000 24000h0M60000 23000h0M60000 22000h0"/><path stroke="#000" stroke-linecap="round" stroke-width="300" d="M49454 20952h0M49496.5 30955.5h0M46060 21404h0M46103 30547h0M48480.5 32731.5h0M47096 19244h0M47127.5 32724.5h0"/></mask></defs></g><path d="M4948.9 1839.8v-710.24H1897.8v.63h-295.27v-.63h-196.85v13778h3543.2v-13286" fill="#b3b3b3" fill-rule="evenodd" stroke="#000" stroke-width="36.456"/><path d="M3767.9 2901.1H2586.8v10235h1181.1zM4752.1 14514v196.83h-196.85c-.01-108.71 88.115-196.84 196.83-196.85z" fill="#1a1a1a" fill-rule="evenodd" stroke="#000" stroke-width="36.456"/><path d="M4752.1 1523.3v-196.83" fill="none" stroke="#000" stroke-width="36.456"/><path d="M4752.1 1326.4h-196.85c.01 108.69 88.128 196.8 196.83 196.81l.015.017v-188.95zM3177.3 2251.5c445.88-.32 445.88-669.56 0-669.24v.017c-442.97 3.189-442.97 666.02 0 669.2zM3177.3 14455c445.88-.321 445.88-669.56 0-669.24v.02c-442.97 3.188-442.97 666.02 0 669.2z" fill="#1a1a1a" fill-rule="evenodd" stroke="#000" stroke-width="36.456"/><path d="M1897.8 1187.2v139.5M1799.4 1187.9v139.19M4752.1 1523.3h139.2M4555.3 1129.6v57.658M4752.1 14514h139.2M4555.3 14850v-139.19M1799.4 14850v-139.19M1602.6 14514h-139.19M1602.6 1523.9h-139.19M1405.7 14711h196.85" fill="none" stroke="#000" stroke-width="36.456"/><path d="M1602.6 14514c108.72 0 196.86 88.134 196.85 196.85H1602.6v-196.83z" fill="#1a1a1a" fill-rule="evenodd" stroke="#000" stroke-width="36.456"/><path d="M1799.4 14908v-57.658M1463.4 14514h-57.659M1405.7 14703h196.85M1405.7 1129.6v.63M1405.7 14703v7.873M1463.4 1523.9h-57.659" fill="none" stroke="#000" stroke-width="36.456"/><path d="M1799.4 1327.1c0 108.71-88.128 196.84-196.85 196.84v-197.48h196.85z" fill="#1a1a1a" fill-rule="evenodd" stroke="#000" stroke-width="36.456"/><path d="M4555.3 14908v-57.658M4948.9 14711h-196.85M4891.3 14514h57.659M4948.9 14703h-196.85M4555.3 1187.2v139.19M4948.9 1326.4h-196.85M4948.9 1334.3h-196.85M4948.9 1334.3v-7.873M1405.7 1327.1h196.85M1799.4 1130.2v57.658M1405.7 1334.9h196.85M1897.8 1129.6v57.658M1602.6 1130.2v-.63M1405.7 1334.3h196.85M1897.8 1326.4h2209M1799.4 1327.1h98.423M4752.1 1839.8v-316.59M4752.1 1839.8v12674M1799.4 14711h2755.8M1602.6 14514V1524M1602.6 14908v-196.83M4752.1 14908v-196.83M4555.3 1326.4h-448.38M4752.1 1129.6v196.83M1602.6 1130.2v196.19M1897.8 1187.2h2209M1799.4 1187.9h98.423M4891.3 1523.3v316.59M4555.3 1187.2h-448.38M4891.3 1839.8v12674M4555.3 14850H1799.5M1463.4 14514V1524" fill="none" stroke="#000" stroke-width="36.456"/><g transform="matrix(0 -393.6 393.63 0 17832 5753.3)" stroke="#000" stroke-width=".093"><path d="M.02.395h.01M.03.145H.02M.02.145v.25" fill="none"/><path d="M2.01.03v1.98H.03V.03z" fill="#1a1a1a" fill-rule="evenodd"/><path d="M2.02.145h-.01M2.01.395h.01M2.02.645h-.01M.03.645H.02M2.01.895h.01M.02.895h.01M2.02 1.145h-.01M.03 1.145H.02M2.01 1.395h.01M.02 1.395h.01M2.02 1.645h-.01M.03 1.645H.02M2.01 1.895h.01M.02 1.895h.01" fill="none"/><circle transform="scale(1 -1)" cx=".5" cy="-.5" r=".2" fill="#333"/><path d="M.02 1.645v.25M.02.645v.25M.02 1.145v.25M2.02.395v-.25M2.02 1.895v-.25M2.02.895v-.25M2.02 1.395v-.25" fill="none"/></g><g stroke-width=".093"><g transform="matrix(393.7 0 0 -393.69 21233.999 4101.786)"><path d="M-1.27-8.89h2.54V1.27h-2.54z" fill="#1a1a1a" fill-rule="evenodd" stroke="#000"/><path d="M-.6-1.94v-1.2H.6v1.2z" fill="#333" fill-rule="evenodd" stroke="#000"/><path d="M-.6-5.68H.6v1.2H-.6zM-.6-.6H.6V.6H-.6zM.6-7.02H-.6v-1.2H.6z" fill="#4d4d4d" fill-rule="evenodd" stroke="#000"/><path d="M-.6-1.94l.299-.299M-.6-3.14l.299.299M-.301-2.239v-.602M.6-1.94l-.299-.299M.301-2.239h-.602M.6-3.14l-.299.299M.301-2.841v.602M-.301-2.841h.602M.6-4.48l-.299-.299M-.6-4.48l.299-.299M.301-4.779h-.602M.6-5.68l-.299.299M.301-5.381v.602M-.6-5.68l.299.299M-.301-5.381h.602M-.301-4.779v-.602M-.6-.6l.299.299M.6-.6l-.299.299M-.301-.301h.602M-.6.6l.299-.299M-.301.301v-.602M.6.6L.301.301M.301.301h-.602M.301-.301v.602M-.6-8.22l.299.299M.6-8.22l-.299.299M-.301-7.921h.602M-.6-7.02l.299-.299M-.301-7.319v-.602M.6-7.02l-.299-.299M.301-7.319h-.602M.301-7.921v.602" fill="none" stroke="#000"/><path d="M-.3-2.84h.6v.6h-.6zM.3-5.38v.6h-.6v-.6zM.3-.3v.6h-.6v-.6zM.3-7.92v.6h-.6v-.6z" fill="olive" fill-rule="evenodd" stroke="#000"/><path d="M-.1-2.29v.05M-.1-2.79v.5M-.1-2.84v.05M.1-2.84v.05M-.1-2.79h.2M.1-2.79v.5M.1-2.29v.05M-.1-2.29h.2M-.1-4.83v.05M-.1-5.33v.5M-.1-5.38v.05M.1-5.38v.05M-.1-5.33h.2M.1-5.33v.5M.1-4.83v.05M-.1-4.83h.2M-.1.25V.3M-.1-.25v.5M-.1-.3v.05M.1-.3v.05M-.1-.25h.2M.1-.25v.5M.1.25V.3M-.1.25h.2M-.1-7.37v.05M-.1-7.87v.5M-.1-7.92v.05M.1-7.92v.05M-.1-7.87h.2M.1-7.87v.5M.1-7.37v.05M-.1-7.37h.2" fill="none" stroke="#000"/></g></g><path d="M10799 1814.8v-710.24H7747.9v.63h-295.27v-.63h-196.85v13778h3543.2v-13286" fill="#b3b3b3" fill-rule="evenodd" stroke="#000" stroke-width="36.456"/><path d="M9617.9 2876.1H8436.8v10235h1181.1zM10602 14489v196.83h-196.85c0-108.71 88.115-196.84 196.83-196.85z" fill="#1a1a1a" fill-rule="evenodd" stroke="#000" stroke-width="36.456"/><path d="M10602 1498.3v-196.83" fill="none" stroke="#000" stroke-width="36.456"/><path d="M10602 1301.4h-196.85c.01 108.69 88.129 196.8 196.83 196.81l.02.017v-188.95zM9027.3 2226.5c445.88-.32 445.88-669.56 0-669.24v.017c-442.97 3.189-442.97 666.02 0 669.2zM9027.3 14430c445.88-.321 445.88-669.56 0-669.24v.02c-442.97 3.188-442.97 666.02 0 669.2z" fill="#1a1a1a" fill-rule="evenodd" stroke="#000" stroke-width="36.456"/><path d="M7747.8 1162.2v139.5M7649.4 1162.9v139.19M10602 1498.3h139.2M10405 1104.6v57.658M10602 14489h139.2M10405 14825v-139.19M7649.4 14825v-139.19M7452.6 14489h-139.19M7452.6 1498.9h-139.19M7255.7 14686h196.85" fill="none" stroke="#000" stroke-width="36.456"/><path d="M7452.6 14489c108.72 0 196.86 88.134 196.85 196.85H7452.6v-196.83z" fill="#1a1a1a" fill-rule="evenodd" stroke="#000" stroke-width="36.456"/><path d="M7649.4 14883v-57.658M7313.4 14489h-57.659M7255.7 14678h196.85M7255.7 1104.6v.63M7255.7 14678v7.873M7313.4 1498.9h-57.659" fill="none" stroke="#000" stroke-width="36.456"/><path d="M7649.4 1302.1c0 108.71-88.128 196.84-196.85 196.84v-197.48h196.85z" fill="#1a1a1a" fill-rule="evenodd" stroke="#000" stroke-width="36.456"/><path d="M10405 14883v-57.658M10799 14686h-196.85M10741 14489h57.659M10799 14678h-196.85M10405 1162.2v139.19M10799 1301.4h-196.85M10799 1309.3h-196.85M10799 1309.3v-7.873M7255.7 1302.1h196.85M7649.4 1105.2v57.658M7255.7 1309.9h196.85M7747.8 1104.6v57.658M7452.6 1105.2v-.63M7255.7 1309.3h196.85M7747.8 1301.4h2209M7649.4 1302.1h98.423M10602 1814.8v-316.59M10602 1814.8v12674M7649.4 14686h2755.8M7452.6 14489V1499M7452.6 14883v-196.83M10602 14883v-196.83M10405 1301.4h-448.38M10602 1104.6v196.83M7452.6 1105.2v196.19M7747.8 1162.2h2209M7649.4 1162.9h98.423M10741 1498.3v316.59M10405 1162.2h-448.38M10741 1814.8v12674M10405 14825H7649.2M7313.4 14489V1499" fill="none" stroke="#000" stroke-width="36.456"/></svg>
